icon/lg/atom-icon.svg

<?xml version="1.0" encoding="UTF-8"?>
<svg viewBox="0 0 256 256" version="1.1" xmlns="http://www.w3.org/2000/svg" xmlns:xlink="http://www.w3.org/1999/xlink" preserveAspectRatio="xMidYMid" height="1em" width="1em">
  <g>
    <circle fill="#60B57D" cx="128.001873" cy="128.001873" r="128.001873"/>
    <path d="M117.819385,59.1434026 C119.371397,60.3901246 119.618884,62.658947 118.372162,64.2109593 C117.12544,65.7629715 114.856617,66.0104582 113.304605,64.7637362 C103.908137,57.2156103 96.0812086,54.7235215 91.2537774,57.1878261 C85.6356896,60.0529206 83.4569684,69.2709474 84.5908593,82.1343107 L84.7616639,83.8707901 C84.8568702,84.7495931 84.9667742,85.6440627 85.0913384,86.5533968 L85.3600024,88.3916464 C85.6935241,90.5414467 86.105452,92.7680163 86.5953204,95.0614072 C93.3615951,94.0125943 100.64435,93.3271252 108.292524,93.0413713 C111.610657,88.778896 114.983813,84.7780471 118.371777,81.0734898 L120.069574,79.2431198 C124.316209,74.729945 128.575318,70.6904753 132.766368,67.1939722 L134.438966,65.8244933 C149.734349,53.5393972 163.970328,48.6783426 173.176796,54.6556649 C181.19657,59.8585996 183.34607,71.6447918 180.367582,87.4391636 C179.998672,89.3954262 178.113748,90.6822296 176.157485,90.3133195 C174.201223,89.9444094 172.914419,88.0594846 173.283329,86.1032221 C175.777742,72.8758083 174.135494,63.8709917 169.252129,60.702844 C162.905369,56.5821942 151.111275,61.3259697 137.812804,72.4043813 L136.329206,73.6612559 C135.584512,74.3025988 134.835625,74.963204 134.083222,75.6426375 L132.573928,77.0264806 C131.060346,78.4351711 129.534502,79.9180184 128.001804,81.4715522 L126.467021,83.0485198 C126.21091,83.3152319 125.954659,83.5838754 125.698293,83.8544342 L124.15891,85.5006424 L122.617964,87.1920471 L121.076655,88.9278771 C120.562959,89.5138056 120.049402,90.1070099 119.536186,90.7073613 L117.997758,92.5297285 L117.698023,92.8929446 C121.28415,92.9119292 124.932754,93.0158692 128.629791,93.2080963 L130.064985,93.2871098 L132.917312,93.4699435 C135.283918,93.6359824 137.624199,93.8360416 139.934443,94.0688209 L142.69208,94.3637784 C143.149204,94.4155279 143.605067,94.4685653 144.05964,94.5228803 L146.771351,94.8640185 C149.017808,95.1609375 151.230516,95.4892762 153.405763,95.8477344 L155.997841,96.2922583 L158.552531,96.7651975 L161.068407,97.2660527 C169.388387,98.9815419 177.037721,101.153976 183.778843,103.700135 L185.773696,104.475111 C203.477879,111.549306 214.388019,121.287289 213.828149,132.051049 C213.364016,140.949316 205.388076,148.294587 192.018861,153.558369 C190.166521,154.28768 188.07368,153.377285 187.344369,151.524945 C186.615058,149.672605 187.525453,147.579764 189.377793,146.850453 C200.402268,142.509851 206.349373,137.032992 206.628791,131.676055 C206.985524,124.81769 198.779877,117.724867 185.121028,112.003603 L183.421473,111.310005 C182.270548,110.852321 181.08413,110.404214 179.863909,109.966558 L178.008437,109.31802 C177.381636,109.104526 176.746597,108.893754 176.103529,108.685813 L174.150455,108.070592 L172.150483,107.473013 C171.813317,107.374923 171.474249,107.277595 171.133307,107.181044 L169.065366,106.611155 C168.71703,106.517762 168.366872,106.425172 168.014918,106.333399 L165.881863,105.792675 C163.727684,105.261973 161.510769,104.761665 159.236826,104.294698 L156.944085,103.838955 C156.558864,103.764887 156.172112,103.691772 155.783854,103.619624 L153.436464,103.198451 L151.054227,102.801145 C150.654354,102.736952 150.253082,102.673782 149.850437,102.611646 L147.418308,102.251368 C146.602248,102.135489 145.78091,102.023861 144.954503,101.916594 L142.46029,101.607979 L139.936939,101.326179 C138.66819,101.192092 137.388989,101.068306 136.100051,100.95519 L133.509402,100.743293 C132.641666,100.677476 131.769813,100.61651 130.894054,100.560505 L128.255276,100.40748 L125.614802,100.285875 L122.994544,100.196303 C119.949887,100.110285 116.94922,100.088604 114.002045,100.127544 L111.942196,100.166379 L111.132326,101.240381 C110.628912,101.915464 110.12694,102.596986 109.626611,103.284821 L108.130751,105.36713 C106.391796,107.818283 104.675415,110.34518 102.990195,112.942311 C102.508722,113.684319 102.033522,114.426316 101.56463,115.168064 L100.176916,117.392332 C98.6992549,119.792329 97.2881423,122.18726 95.9447918,124.569133 C96.0681693,124.870812 96.1934233,125.173651 96.3196573,125.476832 L97.2995109,127.791137 C97.465971,128.17788 97.6340057,128.565116 97.8036137,128.952814 L98.8401299,131.284326 L99.9143375,133.625525 L101.02617,135.974985 L102.17556,138.331281 L103.362442,140.692986 L104.577282,143.04068 L105.809751,145.35484 L107.058735,147.634575 C107.268213,148.011612 107.478333,148.387178 107.689071,148.761254 L108.960736,150.98768 C109.386974,151.723762 109.8155,152.453736 110.246128,153.177452 L111.544133,155.329679 C111.978779,156.040731 112.415341,156.745378 112.853634,157.44347 L114.173518,159.517933 L115.50267,161.552177 C116.613848,163.230375 117.733518,164.86575 118.858776,166.455981 L120.211584,168.34244 C121.114996,169.585434 122.021241,170.798943 122.928834,171.981776 L124.291047,173.732871 L125.654166,175.437062 C125.881366,175.717136 126.108557,175.995218 126.335716,176.27129 L127.698102,177.903454 L129.058607,179.486486 C130.417798,181.044654 131.772495,182.527787 133.117679,183.931874 L134.459506,185.309463 L135.793877,186.633463 C136.459012,187.281918 137.120933,187.909942 137.779013,188.517035 L139.089864,189.703163 C139.742543,190.282124 140.390962,190.83982 141.034495,191.375748 L142.314859,192.418434 C151.016948,199.343099 158.728215,202.139721 163.847778,199.528475 C168.655489,197.077079 170.949589,189.920417 170.780376,179.770866 L170.736526,178.2262 C170.715755,177.703972 170.688832,177.174476 170.655763,176.637926 L170.538126,175.007326 C170.492773,174.456882 170.441279,173.899597 170.383653,173.335687 L170.192381,171.624291 C170.157438,171.335816 170.120963,171.045739 170.082957,170.754085 L169.836558,168.985463 L169.553454,167.180295 L169.233683,165.339866 C168.95194,163.79184 168.632042,162.208421 168.274086,160.592954 L167.826279,158.639224 L167.341974,156.656012 C167.258218,156.323092 167.172942,155.988996 167.086148,155.653752 L166.547168,153.628726 L165.971786,151.577428 C165.872858,151.233427 165.772414,150.888385 165.670456,150.542328 L165.040541,148.454032 L164.374317,146.342675 C164.032135,145.281445 163.676351,144.212049 163.306986,143.135209 L162.550157,140.97182 L161.757151,138.789864 C161.21643,137.329324 160.651616,135.857263 160.062761,134.375393 L159.161452,132.145447 L158.224118,129.902072 C158.064896,129.527128 157.904174,129.151679 157.741953,128.77575 L156.750652,126.514641 L155.723419,124.243313 C155.549221,123.863979 155.373528,123.484272 155.19634,123.104219 L154.115281,120.819973 C153.932117,120.438646 153.74746,120.057027 153.561311,119.675142 C152.689035,117.885675 153.432566,115.727906 155.222033,114.855631 C157.0115,113.983355 159.169269,114.726886 160.041545,116.516353 L161.237045,119.005702 C161.629042,119.834363 162.014524,120.661827 162.393449,121.487872 L163.510512,123.961522 C164.607824,126.430467 165.645757,128.884625 166.62321,131.317973 L167.580462,133.744161 C167.73663,134.147296 167.891108,134.549796 168.043891,134.951635 L168.940202,137.354503 C169.086183,137.753583 169.230459,138.151946 169.373024,138.549563 L170.207844,140.926099 C170.750652,142.504196 171.265925,144.069474 171.753339,145.620148 L172.463524,147.934984 C180.963752,176.344042 179.872929,199.449608 167.122918,205.95069 C156.809597,211.211026 142.186828,203.904679 127.467776,188.495419 L125.944945,186.872636 C124.929726,185.771755 123.914739,184.633066 122.901368,183.458035 L121.382695,181.668413 C117.337051,176.824379 113.328304,171.410569 109.444901,165.520689 L107.994674,163.289852 C104.384656,157.657885 100.894522,151.617793 97.5971477,145.24679 L96.9402647,143.9682 C96.504101,143.112976 96.0746872,142.258307 95.65207,141.40444 L94.4046553,138.845493 C93.4231301,136.800698 92.481021,134.761948 91.5789736,132.732663 L90.9971765,133.884485 C90.8176428,134.244755 90.6397621,134.604464 90.4635389,134.96358 L89.4261254,137.110951 L88.4287064,139.242719 L87.4714961,141.357474 C87.3153237,141.708436 87.1608356,142.058631 87.0080363,142.408029 L86.1115413,144.494616 C85.9655149,144.840708 85.8211863,145.185944 85.6785598,145.530295 L84.8432624,147.585538 C84.7074625,147.926229 84.5733736,148.265977 84.4410003,148.60475 L83.6673831,150.625474 C83.54189,150.960235 83.4181213,151.293965 83.2960817,151.626632 L82.584627,153.60966 L81.9148821,155.565792 C81.5904727,156.5369 81.281785,157.497392 80.9889394,158.446475 L80.4244068,160.329194 L79.9023343,162.180077 C79.8188725,162.485826 79.7371888,162.79019 79.6572877,163.093139 L79.1993075,164.893622 C78.8355426,166.379485 78.5165655,167.82851 78.2429344,169.23702 L77.936379,170.90755 C75.895901,182.736942 77.2257372,191.461133 82.2810413,194.741933 C87.3727851,198.045247 96.8141459,195.532264 108.464238,187.121617 C110.078309,185.956357 112.331403,186.32019 113.496663,187.934262 C114.661923,189.548333 114.298089,191.801427 112.684018,192.966687 C98.8765121,202.934854 86.6712887,206.183487 78.3569601,200.789492 C68.3114741,194.270156 67.6053591,177.032255 74.2913825,155.587489 L74.9845532,153.42923 C75.4629978,151.981365 75.9740078,150.515766 76.5170064,149.034365 L77.3554235,146.800651 C78.5051092,143.807207 79.7815951,140.754409 81.1802654,137.657693 L82.2521056,135.327162 L83.3693322,132.981609 C84.7927386,130.043592 86.3213112,127.073816 87.9512574,124.084965 C87.7352141,123.532514 87.5209427,122.981753 87.3098205,122.432162 L86.377186,119.956623 C85.1623853,116.667193 84.0626816,113.42424 83.0810636,110.243594 L82.3670378,107.870041 C81.9262809,106.365551 81.5126576,104.876192 81.1264939,103.403691 C80.6821133,103.492567 80.2420078,103.583509 79.8052581,103.676043 L77.8449947,104.107159 L75.9322065,104.559646 C75.6174386,104.636813 75.3047042,104.714848 74.9940311,104.793742 L73.1549489,105.277312 L71.3666662,105.780954 C70.7791862,105.952122 70.2003945,106.126549 69.6305126,106.304148 L67.9478178,106.846373 C67.3959771,107.03023 66.8532679,107.217171 66.3199116,107.407111 L64.7481237,107.985841 C53.9451243,112.098706 47.3645475,117.495755 47.0587756,123.374361 C46.7793231,128.731963 52.1260434,134.797047 62.6420681,140.257374 C64.4088389,141.17475 65.0974096,143.350681 64.1800338,145.117451 C63.2626579,146.884222 61.0867271,147.572793 59.3199562,146.655417 C46.5667659,140.033467 39.395243,131.898408 39.859417,122.999367 C40.5047003,110.593496 56.1645758,101.124182 79.4573659,96.3428638 C74.742889,73.8176956 77.1421549,56.2919661 87.9773244,50.7662813 C95.9859053,46.6780643 106.448722,50.0094184 117.819385,59.1434026 Z M137.573212,126.194302 C138.76927,131.729875 135.251314,137.183526 129.715741,138.381925 C124.180168,139.577984 118.726517,136.060028 117.528118,130.524455 C116.3344,124.988882 119.850016,119.535231 125.385589,118.336832 C130.921162,117.140774 136.374813,120.65873 137.573212,126.194302 Z M102.674798,100.587556 L102.024069,100.63304 C101.527689,100.668862 101.033437,100.706452 100.541367,100.745789 L98.196407,100.947936 L95.8862906,101.176395 C95.5042486,101.216636 95.1237139,101.25795 94.7447141,101.300329 L92.4893555,101.567281 C92.1166061,101.613872 91.745447,101.661505 91.3759059,101.710169 L89.178297,102.014444 L88.3061961,102.147379 L88.6143535,103.298034 C89.0968639,105.051428 89.6195057,106.833484 90.182105,108.640487 L90.8763926,110.820629 C90.9953001,111.185903 91.1158032,111.552115 91.2379003,111.919235 L91.9896016,114.132628 C92.1966085,114.729853 92.4077473,115.329284 92.6230121,115.930796 C93.764822,114.032126 94.9453656,112.129119 96.1639046,110.226271 L96.9426559,109.018198 C98.8190028,106.126517 100.732662,103.31377 102.674798,100.587556 Z" fill="#FFFFFF"/>
  </g>
</svg>

<svg width="256" height="256" xmlns="http://www.w3.org/2000/svg" preserveAspectRatio="xMidYMid"><circle fill="#60B57D" cx="128.002" cy="128.002" r="128.002"/><path d="M117.82 59.143a3.605 3.605 0 0 1-4.515 5.62c-9.397-7.547-17.224-10.04-22.051-7.575-5.618 2.865-7.797 12.083-6.663 24.946l.17 1.737c.096.879.206 1.773.33 2.682l.269 1.839c.334 2.15.745 4.376 1.235 6.67 6.767-1.05 14.05-1.735 21.698-2.02a197.699 197.699 0 0 1 10.079-11.969l1.698-1.83c4.246-4.513 8.505-8.553 12.696-12.049l1.673-1.37c15.295-12.285 29.531-17.146 38.738-11.168 8.02 5.203 10.17 16.989 7.19 32.783a3.605 3.605 0 1 1-7.084-1.336c2.495-13.227.852-22.232-4.03-25.4-6.348-4.12-18.142.623-31.44 11.701l-1.484 1.257a127.43 127.43 0 0 0-2.246 1.982l-1.51 1.383a149.716 149.716 0 0 0-4.571 4.446l-1.535 1.577c-.256.266-.512.535-.769.805l-1.54 1.647-1.54 1.691-1.541 1.736c-.514.586-1.028 1.179-1.54 1.78l-1.54 1.822-.299.363c3.586.019 7.235.123 10.932.315l1.435.08 2.852.182c2.367.166 4.707.366 7.017.599l2.758.295c.457.052.913.105 1.368.159l2.711.341c2.247.297 4.46.625 6.635.984l2.592.444 2.555.473 2.515.501c8.32 1.716 15.97 3.888 22.71 6.434l1.996.775c17.704 7.074 28.614 16.812 28.054 27.576-.464 8.898-8.44 16.244-21.81 21.507a3.605 3.605 0 1 1-2.64-6.708c11.024-4.34 16.971-9.817 17.25-15.174.358-6.858-7.848-13.951-21.507-19.672l-1.7-.694c-1.15-.458-2.337-.906-3.557-1.343l-1.856-.649c-.626-.213-1.261-.424-1.904-.632l-1.954-.615-2-.598c-.337-.098-.676-.195-1.017-.292l-2.068-.57c-.348-.093-.698-.186-1.05-.278l-2.133-.54a174.737 174.737 0 0 0-6.645-1.498l-2.293-.456-1.16-.22-2.348-.42-2.382-.398-1.204-.19-2.432-.36c-.816-.116-1.637-.227-2.463-.334l-2.495-.309-2.523-.282a217.085 217.085 0 0 0-3.837-.37l-2.59-.213c-.868-.066-1.74-.126-2.616-.182l-2.639-.154-2.64-.121-2.62-.09a217.035 217.035 0 0 0-8.993-.068l-2.06.038-.81 1.074a213.91 213.91 0 0 0-1.505 2.045l-1.496 2.082a220.968 220.968 0 0 0-6.566 9.801l-1.388 2.224a217.303 217.303 0 0 0-4.232 7.177c.123.302.248.605.375.908l.98 2.314c.166.387.334.774.504 1.162l1.036 2.331 1.074 2.342 1.112 2.349 1.15 2.356 1.186 2.362 1.215 2.348 1.233 2.314 1.249 2.28.63 1.126 1.272 2.227c.426.736.855 1.466 1.285 2.19l1.298 2.152c.435.71.871 1.415 1.31 2.113l1.32 2.075 1.329 2.034a192.004 192.004 0 0 0 3.356 4.904l1.353 1.886a174.77 174.77 0 0 0 2.717 3.64l1.362 1.75 1.363 1.705c.227.28.455.558.682.834l1.362 1.632 1.36 1.583a129.105 129.105 0 0 0 4.06 4.446l1.342 1.377 1.334 1.324a99.254 99.254 0 0 0 1.985 1.884l1.31 1.186a82.252 82.252 0 0 0 1.945 1.673l1.28 1.042c8.703 6.925 16.414 9.722 21.534 7.11 4.807-2.45 7.102-9.608 6.932-19.757l-.043-1.545a72.96 72.96 0 0 0-.081-1.588l-.118-1.63a85.54 85.54 0 0 0-.154-1.672l-.192-1.712a97.035 97.035 0 0 0-.109-.87l-.246-1.769-.284-1.805-.32-1.84a127.447 127.447 0 0 0-.959-4.747l-.448-1.954-.484-1.983c-.084-.333-.17-.667-.256-1.002l-.539-2.025-.575-2.052-.302-1.035-.63-2.088-.666-2.111c-.342-1.062-.698-2.131-1.067-3.208l-.757-2.163-.793-2.182a199.84 199.84 0 0 0-1.694-4.415l-.902-2.23-.937-2.243-.482-1.126-.991-2.261-1.028-2.272c-.174-.379-.35-.759-.527-1.139l-1.08-2.284a220.62 220.62 0 0 0-.555-1.145 3.605 3.605 0 1 1 6.48-3.159l1.196 2.49c.392.828.778 1.656 1.156 2.482l1.118 2.474a220.378 220.378 0 0 1 3.112 7.356l.957 2.426c.157.403.311.806.464 1.208l.896 2.403c.146.399.29.797.433 1.195l.835 2.376a184.854 184.854 0 0 1 1.545 4.694l.71 2.315c8.5 28.409 7.41 51.515-5.34 58.016-10.313 5.26-24.936-2.046-39.655-17.456l-1.523-1.622a137.51 137.51 0 0 1-3.044-3.415l-1.518-1.79c-4.046-4.844-8.055-10.257-11.938-16.147l-1.45-2.231a225.959 225.959 0 0 1-10.398-18.043l-.657-1.279a238.72 238.72 0 0 1-1.288-2.564l-1.247-2.559a230.326 230.326 0 0 1-2.826-6.112l-.582 1.151c-.18.36-.357.72-.533 1.08l-1.038 2.147-.997 2.132-.958 2.114c-.156.351-.31.702-.463 1.051l-.896 2.087c-.146.346-.29.69-.433 1.035l-.836 2.056c-.136.34-.27.68-.402 1.019l-.774 2.02c-.125.335-.249.669-.37 1.002l-.712 1.983-.67 1.956c-.325.97-.633 1.931-.926 2.88l-.565 1.883-.522 1.851c-.083.306-.165.61-.245.913l-.458 1.8a92.343 92.343 0 0 0-.956 4.344l-.307 1.67c-2.04 11.83-.71 20.554 4.345 23.835 5.092 3.303 14.533.79 26.183-7.62a3.605 3.605 0 1 1 4.22 5.845c-13.807 9.968-26.013 13.216-34.327 7.822-10.046-6.519-10.752-23.757-4.066-45.202l.694-2.158c.478-1.448.989-2.913 1.532-4.395l.838-2.233a172.466 172.466 0 0 1 3.825-9.143l1.072-2.33 1.117-2.346a208.194 208.194 0 0 1 4.582-8.897c-.216-.552-.43-1.103-.641-1.653l-.933-2.475a188.692 188.692 0 0 1-3.296-9.713l-.714-2.374a162.63 162.63 0 0 1-1.24-4.466c-.445.089-.885.18-1.322.272l-1.96.431-1.913.453c-.315.077-.627.155-.938.234l-1.84.483-1.787.504c-.588.171-1.167.346-1.736.523l-1.683.542c-.552.184-1.095.371-1.628.561l-1.572.579c-10.803 4.113-17.383 9.51-17.69 15.388-.279 5.358 5.068 11.423 15.584 16.883a3.605 3.605 0 1 1-3.322 6.398C46.567 140.033 39.395 131.898 39.86 123c.645-12.406 16.305-21.875 39.597-26.656-4.714-22.525-2.315-40.051 8.52-45.577 8.009-4.088 18.472-.757 29.842 8.377Zm19.753 67.051c1.196 5.536-2.322 10.99-7.857 12.188-5.536 1.196-10.99-2.322-12.188-7.858-1.194-5.535 2.322-10.989 7.858-12.187 5.535-1.196 10.989 2.322 12.187 7.857Zm-34.898-25.606-.65.045c-.497.036-.992.073-1.484.113l-2.345.202-2.31.228c-.382.04-.762.082-1.141.124l-2.256.267-1.113.143-2.198.304-.872.133.308 1.151a167.326 167.326 0 0 0 1.568 5.342l.694 2.18.362 1.1.752 2.213c.207.597.418 1.196.633 1.798a238.568 238.568 0 0 1 3.54-5.705l.78-1.208a234.986 234.986 0 0 1 5.732-8.43Z" fill="#FFF"/></svg>
